X:1
T: Judy's Jubilation
N:for Judy Kleppel, in honor of her graduation from Johns Hopkins University School of Public Health
C:Dave Wiesler
L:1/4
M:3/4
K:C
||"C"e e/g/ "G"d/g/ | "C"e e/g/ "G"d/g/ | "C"e f e | "G"d2 "C"c | "F"A A/c/ "C"G/c/ |
"F" A A/c/ "C"G/c/ |[1 "F"A c "G"d | "C"e "F"f/e/ "G"d :|] [2 "F"A/B/ c "G"B | "C"c3 |]
[|: "G"d B/c/ d/B/ | "C"e c G | "F"A f "G"f | "C"e f/e/ d/c/ |
"G" d B/c/ d/B/ | "C"e c G | "F"A/B/ c "G"B | "C"c3 :|]
